X:1
T:Jesus Is a Friend of Mine
T:James Edwin McConnell
T:Jesus Is a Friend of Mine
T:Public Domain
T:Public Domain
C:James Edwin McConnell
Z:Public Domain
%%score ( 1 2 ) ( 3 4 )
L:1/8
M:4/4
K:Bb
V:1 treble 
V:2 treble 
V:3 bass 
V:4 bass 
V:1
 [Fd]>[Ge] [Fd]>[Ec] [DB]2 [FA]2 | [EG]>[GB] [FA]>[EG] [DF]4 | %2
w: 1.~I’ve a blest com- pan- ion|ev- er at my side;|
w: 2.~When I meet temp- ta- tions|Je- sus bears me through,|
w: 3.~What a friend is Je- sus|in this world of woe!|
 [Fd]>[Ge] [Fd]>[Ec] [DB]2 [DA]>[DB] | [=Ed]2 [Ec]2 [_Ec]4 | [Fd]>[Ge] [Fd]>[Ec] [DB]2 [FA]2 | %5
w: He’s my Lord and Sav- ior, and|He’s my guide;|I am trust- ing dai- ly|
w: Gives me bless- èd vic- t’ry and|keeps me true;|Heav- en’s gold- en sun- light|
w: Oh, how sweet to trust Him, His|love to know—|Bless- èd Lord and Sav- ior,|
 [EG]>[GB] [FA]>[EG] [DF]4 | [Ff]2 [Fd]2 [Ec]3 [DB] | [DB]6 z2 ||"^Refrain" [Fd]4 [DF]2 [DG]>[DF] | %9
w: in His love di- vine;|He’s a friend of|mine.||
w: round my path doth shine;|He’s a friend of|mine.|Je- sus is a|
w: I’m so glad I’m Thine;|He’s a friend of|mine.||
 [C=E]2 [Ed]2 [Ec]4 | [Ed]2 [Ec]2 [EG]2 [EA]2 | [Dc]2 [DB]2 [DF]4 | %12
w: |||
w: friend of mine,|Friend of mine, a|friend of mine;|
w: |||
 [DF]>[DF] [DG]>[DF] [Fd]>[DB] [DF]>[B,D] | F2 [=EG]2 [_EA]4 | [EG]>[EA] [EG]>[EF] [Fd]2 [Ec]2 | %15
w: |||
w: Sweet- er ev- er sweet- er, is His|love di- vine;|sus is a friend of mine.|
w: |||
 (D2 E2 D2) z2 |] %16
w: |
w: |
w: |
V:2
 x8 | x8 | x8 | x8 | x8 | x8 | x8 | x8 || x8 | x8 | x8 | x8 | x8 | F2 x6 | x8 | B6 x2 |] %16
w: ||||||||||||||||
w: |||||||||||||Je-|||
V:3
 [B,,B,]>[B,,B,] [B,,B,]>[B,,B,] [B,,F,]2 [D,B,]2 | [E,B,]>[E,B,] [E,B,]>[E,B,] [B,,B,]4 | %2
 [B,,B,]>[B,,B,] [B,,B,]>[B,,B,] [B,,F,]2 [B,,F,]>[B,,B,] | [C,B,]2 [C,B,]2 [F,A,]4 | %4
 [B,,B,]>[B,,B,] [B,,B,]>[B,,B,] [B,,F,]2 [B,,B,]2 | [E,B,]>[E,B,] [E,B,]>[E,B,] [B,,B,]4 | %6
 [D,B,]2 [B,,B,]2 [F,A,]3 [B,,B,] | [B,,B,]6 z2 || [B,,B,]4 [B,,B,]2 [B,,B,]>[B,,B,] | %9
 [C,B,]2 [C,B,]2 [C,B,]4 | [F,A,]2 [F,A,]2 [F,B,]2 F,2 | [B,,F,]2 [B,,F,]2 [B,,B,]4 | %12
 [B,,B,]>[B,,B,] [B,,B,]>[B,,B,] [B,,B,]>[B,,F,] [B,,B,]>[B,,B,] | [D,B,]2 [_D,B,]2 [C,C]4 | %14
 [G,B,]>[F,C] [F,B,]>[F,A,] [F,A,]2 [F,A,]2 | (B,2 G,2 F,2) z2 |] %16
V:4
 x8 | x8 | x8 | x8 | x8 | x8 | x8 | x8 || x8 | x8 | x6 F,2 | x8 | x8 | x8 | x8 | B,,6 x2 |] %16

